X:535
T: "Die Versucherin"
N: Z1215
O: Europa, Mitteleuropa, Schweiz
R: Liebes - Lied
M: 3/4
L: 1/8
K: Ab
A2 | A3cBA | GEE2
A2 | c2Acec | B4
A2 | A3cBA | GEE2
A2 | c2Acec | B4
cd | e2c2ec | d2B2
cd | e2c2ec | d2B2
df | e3cdB | A4

@@@ Tune index: 10293
